X: 1
T: The Mullingar Races
R: reel
M: 4/4
L: 1/8
K: Dmaj
A,2|D2(FD) EA,A,E|DEFA Bcde|(3(fga) ec dcdA|(3(Bcd) AF EGFE|
DEFD EA,A,E|DEFG Bcde|(3(fga) ec dBAG|FGEF D2||
(3(ABc)|d2(fd) adfb|afdf edBc|d2(fd) adfd|Beed egfe|
d2(fd) adfb|afdf edBc|dgfe dBAG|FGEF D2|]


Tune 225	Setting 26615

